src/assets/logo.svg

<svg width="109" height="57" viewBox="0 0 109 57" fill="none" xmlns="http://www.w3.org/2000/svg">
<path d="M68 42.39C68 41.3438 68.9096 40.53 69.9493 40.6459L101.251 44.136C105.227 44.5794 108.591 41.226 108.161 37.2483C107.713 33.1161 103.434 30.5622 99.5844 32.1306L70.4171 44.0151C69.2629 44.4854 68 43.6363 68 42.39Z" fill="url(#paint0_linear_2205_14)"/>
<path d="M0.9 45L13.635 13.365H18.63L31.32 45H24.795L14.985 19.035H17.235L7.29 45H0.9ZM7.65 39.105V33.975H24.66V39.105H7.65ZM34.778 45V12.465H40.673V45H34.778ZM56.2911 45.45C54.0111 45.45 51.9861 44.97 50.2161 44.01C48.4461 43.02 47.0361 41.67 45.9861 39.96C44.9661 38.25 44.4561 36.3 44.4561 34.11C44.4561 31.95 44.9511 30.03 45.9411 28.35C46.9611 26.64 48.3411 25.29 50.0811 24.3C51.8211 23.28 53.7561 22.77 55.8861 22.77C57.9861 22.77 59.8311 23.25 61.4211 24.21C63.0411 25.14 64.3011 26.43 65.2011 28.08C66.1311 29.7 66.5961 31.545 66.5961 33.615C66.5961 34.005 66.5661 34.41 66.5061 34.83C66.4761 35.22 66.4011 35.67 66.2811 36.18L48.0111 36.225V31.815L63.5361 31.77L61.1511 33.615C61.0911 32.325 60.8511 31.245 60.4311 30.375C60.0411 29.505 59.4561 28.845 58.6761 28.395C57.9261 27.915 56.9961 27.675 55.8861 27.675C54.7161 27.675 53.6961 27.945 52.8261 28.485C51.9561 28.995 51.2811 29.73 50.8011 30.69C50.3511 31.62 50.1261 32.73 50.1261 34.02C50.1261 35.34 50.3661 36.495 50.8461 37.485C51.3561 38.445 52.0761 39.195 53.0061 39.735C53.9361 40.245 55.0161 40.5 56.2461 40.5C57.3561 40.5 58.3611 40.32 59.2611 39.96C60.1611 39.57 60.9411 39 61.6011 38.25L65.0661 41.715C64.0161 42.945 62.7261 43.875 61.1961 44.505C59.6961 45.135 58.0611 45.45 56.2911 45.45ZM91.3918 45L82.3018 30.915H81.4018L69.0718 13.365H76.3168L85.3618 26.64H86.2618L98.5468 45H91.3918ZM68.5318 45L80.3668 28.08L84.8668 31.095L75.4618 45H68.5318ZM86.5768 29.97L82.0768 26.955L91.0768 13.365H98.0068L86.5768 29.97Z" fill="white"/>
<defs>
<linearGradient id="paint0_linear_2205_14" x1="219.1" y1="39.9983" x2="202.599" y2="91.4037" gradientUnits="userSpaceOnUse">
<stop stop-color="#DF8908"/>
<stop offset="1" stop-color="#B415FF"/>
</linearGradient>
</defs>
</svg>

<svg xmlns="http://www.w3.org/2000/svg" width="109" height="57" fill="none" viewBox="0 0 109 57"><path fill="url(#a)" d="M68 42.39c0-1.046.91-1.86 1.95-1.744l31.301 3.49c3.976.443 7.34-2.91 6.91-6.888-.448-4.132-4.727-6.686-8.577-5.117L70.417 44.015A1.755 1.755 0 0 1 68 42.39"/><path fill="#fff" d="m.9 45 12.735-31.635h4.995L31.32 45h-6.525l-9.81-25.965h2.25L7.29 45zm6.75-5.895v-5.13h17.01v5.13zM34.778 45V12.465h5.895V45zm21.513.45q-3.42 0-6.075-1.44a11.4 11.4 0 0 1-4.23-4.05q-1.53-2.565-1.53-5.85 0-3.24 1.485-5.76 1.53-2.565 4.14-4.05 2.61-1.53 5.805-1.53 3.15 0 5.535 1.44 2.43 1.395 3.78 3.87 1.395 2.43 1.395 5.535 0 .585-.09 1.215-.045.585-.225 1.35l-18.27.045v-4.41l15.525-.045-2.385 1.845q-.09-1.935-.72-3.24-.585-1.305-1.755-1.98-1.125-.72-2.79-.72-1.755 0-3.06.81-1.305.765-2.025 2.205-.675 1.395-.675 3.33 0 1.98.72 3.465.765 1.44 2.16 2.25 1.395.765 3.24.765 1.665 0 3.015-.54 1.35-.585 2.34-1.71l3.465 3.465a10 10 0 0 1-3.87 2.79q-2.25.945-4.905.945m35.1-.45-9.09-14.085h-.9l-12.33-17.55h7.246l9.045 13.275h.9L98.547 45zm-22.86 0 11.836-16.92 4.5 3.015L75.462 45zm18.046-15.03-4.5-3.015 9-13.59h6.93z"/><defs><linearGradient id="a" x1="219.1" x2="202.599" y1="39.998" y2="91.404" gradientUnits="userSpaceOnUse"><stop stop-color="#df8908"/><stop offset="1" stop-color="#b415ff"/></linearGradient></defs></svg>
